public/static/img/user/iden1.svg

<svg width="163" height="98" viewBox="0 0 163 98" fill="none" xmlns="http://www.w3.org/2000/svg">
<rect width="162.5" height="98" rx="16" fill="white" fill-opacity="0.1"/>
<rect x="13" y="24" width="8" height="8" rx="4" fill="#404040"/>
<rect x="23" y="24" width="8" height="8" rx="4" fill="#404040"/>
<rect x="33" y="24" width="8" height="8" rx="4" fill="#404040"/>
<rect x="13" y="39" width="51" height="8" rx="4" fill="#404040"/>
<rect x="13" y="52" width="67" height="8" rx="4" fill="#404040"/>
<rect x="13" y="77" width="136" height="8" rx="4" fill="#404040"/>
<path d="M116.783 52.0542H128.14V61.4261H116.746L116.783 52.0542ZM109.573 39.5084C109.573 41.1753 108.564 42.5259 107.294 42.5259C106.024 42.5259 105.019 41.1753 105.019 39.5084C105.019 37.8416 106.027 36.4918 107.298 36.4918C108.568 36.4918 109.576 37.8424 109.576 39.5084M139.948 39.4666C139.948 41.1327 138.939 42.4832 137.669 42.4832C136.399 42.4832 135.388 41.1302 135.388 39.4666C135.388 37.803 136.396 36.4492 137.666 36.4492C138.936 36.4492 139.948 37.8424 139.948 39.4666Z" fill="#505050"/>
<path d="M116.783 53.3984C116.783 53.3984 118.95 54.5187 122.051 54.5187C125.712 54.6687 128.103 53.4361 128.103 53.4361V54.5564C128.103 54.5564 124.068 56.7215 122.275 56.7215C120.444 56.7215 116.782 54.1811 116.782 54.1811L116.783 53.3984Z" fill="#404040"/>
<path d="M137.293 37.0534C137.293 40.9157 136.124 46.1499 134.161 48.978C131.455 52.8756 125.353 54.6768 122.499 54.6768C119.614 54.6768 114.123 53.2075 111.414 49.7598C109.105 46.8202 107.705 41.2804 107.705 37.0575C107.705 27.8724 114.318 20.4043 122.499 20.4043C130.68 20.4043 137.293 27.8724 137.293 37.0575" fill="#505050"/>
<path d="M138.601 29.4269C138.601 29.4269 138.472 23.6773 135.193 19.5798C132.902 16.7181 125.599 14.6406 120.37 15.052C120.37 15.052 110.126 15.4618 109.913 22.2637C108.041 23.3839 106.118 25.3163 105.912 28.564C105.502 35.0987 106.659 36.8164 106.659 36.8164C106.659 36.8164 108.303 36.8164 108.715 39.2799C108.715 39.2799 109.462 39.7289 109.534 39.2799C109.646 38.5333 108.862 34.9488 110.431 31.6634C110.624 31.2479 110.818 30.8775 111.005 30.5472C116.141 24.8369 131.205 25.4286 134.735 31.6724C134.88 32.1069 134.984 32.5538 135.048 33.0074C135.346 35.1381 135.72 39.1684 135.72 39.1684C135.72 39.1684 136.28 39.5413 136.654 38.6456C137.028 37.7121 136.953 36.8164 137.289 36.555C139.198 35.2872 138.713 29.9875 138.601 29.4269Z" fill="#404040"/>
<path fill-rule="evenodd" clip-rule="evenodd" d="M146.532 64.9436C147.354 65.7695 148.073 66.4919 148.649 66.9505C148.634 66.9664 148.619 66.9822 148.605 66.998H95.9734C96.4384 66.5766 96.9846 65.962 97.6125 65.2556C99.218 63.4492 101.357 61.0423 104.036 59.729C109.638 57.0034 116.745 57.8352 116.745 57.8352L116.783 58.0966C117.269 58.6211 119.509 60.637 122.461 60.637C125.45 60.637 127.654 58.4719 128.102 57.9859V57.8032C128.102 57.8032 134.545 57.0083 140.112 59.734C142.467 60.8602 144.743 63.1469 146.532 64.9436Z" fill="#404040"/>
</svg>

<svg width="163" height="98" fill="none" xmlns="http://www.w3.org/2000/svg"><rect width="162.5" height="98" rx="16" fill="#fff" fill-opacity=".1"/><rect x="13" y="24" width="8" height="8" rx="4" fill="#404040"/><rect x="23" y="24" width="8" height="8" rx="4" fill="#404040"/><rect x="33" y="24" width="8" height="8" rx="4" fill="#404040"/><rect x="13" y="39" width="51" height="8" rx="4" fill="#404040"/><rect x="13" y="52" width="67" height="8" rx="4" fill="#404040"/><rect x="13" y="77" width="136" height="8" rx="4" fill="#404040"/><path d="M116.783 52.054h11.357v9.372h-11.394l.037-9.372Zm-7.21-12.546c0 1.667-1.009 3.018-2.279 3.018s-2.275-1.35-2.275-3.018c0-1.666 1.008-3.016 2.279-3.016 1.27 0 2.278 1.35 2.278 3.016m30.372-.041c0 1.666-1.009 3.016-2.279 3.016s-2.281-1.353-2.281-3.016c0-1.664 1.008-3.018 2.278-3.018s2.282 1.393 2.282 3.018Z" fill="#505050"/><path d="M116.783 53.398s2.167 1.12 5.268 1.12c3.661.15 6.052-1.082 6.052-1.082v1.12s-4.035 2.166-5.828 2.166c-1.831 0-5.493-2.54-5.493-2.54l.001-.784Z" fill="#404040"/><path d="M137.293 37.053c0 3.863-1.169 9.097-3.132 11.925-2.706 3.898-8.808 5.699-11.662 5.699-2.885 0-8.376-1.47-11.085-4.917-2.309-2.94-3.709-8.48-3.709-12.703 0-9.185 6.613-16.653 14.794-16.653 8.181 0 14.794 7.468 14.794 16.653" fill="#505050"/><path d="M138.601 29.427s-.129-5.75-3.408-9.847c-2.291-2.862-9.594-4.94-14.823-4.528 0 0-10.244.41-10.457 7.212-1.872 1.12-3.795 3.052-4.001 6.3-.41 6.535.747 8.252.747 8.252s1.644 0 2.056 2.464c0 0 .747.449.819 0 .112-.747-.672-4.331.897-7.617.193-.415.387-.785.574-1.116 5.136-5.71 20.2-5.118 23.73 1.125.145.435.249.882.313 1.335.298 2.131.672 6.161.672 6.161s.56.373.934-.522c.374-.934.299-1.83.635-2.091 1.909-1.268 1.424-6.567 1.312-7.128Z" fill="#404040"/><path fill-rule="evenodd" clip-rule="evenodd" d="M146.532 64.944c.822.825 1.541 1.548 2.117 2.007l-.044.047H95.973c.465-.421 1.012-1.036 1.64-1.742 1.605-1.807 3.744-4.214 6.423-5.527 5.602-2.726 12.709-1.894 12.709-1.894l.038.262c.486.524 2.726 2.54 5.678 2.54 2.989 0 5.193-2.165 5.641-2.651v-.183s6.443-.795 12.01 1.931c2.355 1.126 4.631 3.413 6.42 5.21Z" fill="#404040"/></svg>
